!!!OTL: Vor Liebchens T&uuml;r (72a), S.2o6,
!!!id: T0222V
**kern
*clefG2
*k[]
*G:
{8b
8b
=1
4.a
8b
=2
4cc
4ee
=3
4ee
4dd
=4
4b}
=5
{8dd
8ee
=6
4dd
4cc
=7
4a}
=8
{8ee
8ee
=9
4ee
4dd
=10
8gg
8b}
=11
{8b
8b
=12
4.a
8b
=13
4cc
4ee
=14
4ee
4dd
=15
4b}
=16
{8dd
8dd
=17
4.ee
8dd
=18
4cc
4dd
=19
4b}
==
*-
!!!minrhy: 8
!!!meters: 2/4 ]  ZZ[5
!!!cut1: Vor Liebchens T&uuml;r (72a), S.2o6,
!!!cut2: 2. Melodie
!!!reg: Luxemburg
!!!trd: Singendes Volk, Esch-Alzette 1937 posth.
!!!rhy1: XX  X_.X  X_X_  X_X_  X_
!!!rhy2: XX  X_X_  X_
!!!key: T0222V 08  G 2/4 ]  ZZ[5
!!!mod: SECHSTONSKALA DUR ?]  AMBITUS[7b
!!!kad: 32333
!!!akz: 2463_52_6+1_2463_643_
!!!fot: 'a__b__bs"a__c__
!!!for: 'a__b__bw_a__aw_
!!!fok: '^__\__^d_^__\__
!! PHRAS[AUFTAKTIG]
!!!fkt: Liebeslieder
!!!bem: 2. Melodie
!!!bem: 2. Melodie
!! THILL, Mathias:
!! PR[19] 2K[5] 2G[16] 3K[5] 3G[3] 4A[5] 4Ü[0] 5A[0] 6K[0] 6G[0]
!! 7K[0] 7G[0] 8A[0] MEHR[0] SI[35] ABS[37] SR[22] SP[14]
!! ST[12] 2k[14] 2g[32] 3k[0] 3g[0] 4d[0] 4ü[0] 5d[0] 6k[0] 6g[0]
!! 7k[0] 7g[0] 8d[0] mehr[0] si[46] dm[-11] sr[46] sp[0]
!! 1F[37] 2F[51] 3F[0] 4F[0] LF[0] 2P[12] 3P[0] 4P[0] TRI[0] DF[3] AB[41]
!! TF[0] U3K[0] U3[0] U4[0] U4Ü[0] U5[3] U6K[0] U6[0] U7K[0] U7[3]
!! N1[13] N2K[0] N2[18] N3K[0] N3[26] N4[11] N4Ü[0] N5[16] N6K[0] N6[11]
!!!n7k: 0] N7[0] O1[0] O2K[0] O2[0] O3K[0] O3[0] HÖ[0
!!!RNB: symbol: &uuml;  = u umlaut (UTF-8: Ã¼)
